!!!COM: Bach, Johann Sebastian
!!!OTA: Das wohltemperirte Clavier
!!!OPR: Das wohltemperierte Klavier
!!!OTL: Fuga 8, Vol. 1
!!!XEN: The Well-Tempered Clavier, Volume 1, Fugue 8.
!!!ONB: D-sharp minor, 3-part
!!!SCT: BWV 853b
!!!YEC: Copyright 1994, David Huron
!!!YEM: Rights to all derivative electronic formats reserved.
**kern	**kern	**kern
*staff2	*staff1	*staff1
*clefF4	*clefG2	*clefG2
*k[f#c#g#d#a#e#]	*k[f#c#g#d#a#e#]	*k[f#c#g#d#a#e#]
*M4/4	*M4/4	*M4/4
*d#:	*d#:	*d#:
*MM74	*MM74	*MM74
=1	=1	=1
1r	4d#	1r
.	4.a#	.
.	8b	.
.	8a#	.
.	8g#	.
=2	=2	=2
1r	8f#	1r
.	8g#	.
.	4a#	.
.	4d#	.
.	[4g#	.
=3	=3	=3
1r	8g#]	2r
.	8f#	.
.	4e#	.
.	4.d#	4a#
.	.	[4dd#
.	8e#	.
=4	=4	=4
1r	4f#	8dd#]
.	.	8ff#
.	4g#	8ee#
.	.	8dd#
.	4.a#	8cc#
.	.	8dd#
.	.	4ee#
.	8g#	.
=5	=5	=5
1r	8f#	4a#
.	8e#	.
.	8f#	4.dd#
.	16e#	.
.	16d#	.
.	8e#	.
.	4a#	8cc#
.	.	4b#
.	8g##	.
=6	=6	=6
1r	4.a#	8a#
.	.	8b#
.	.	[4cc#
.	8g#	.
.	8f##	4.cc#]
.	8d#	.
.	[4g#	.
.	.	8bn
=7	=7	=7
1r	8g#]	4a#
.	8f#	.
.	8e#	[4dd#
.	8d#	.
.	4e#	8dd#]
.	.	8cc##
.	8f#	8dd#
.	8g#	8ee#
=8	=8	=8
4D#	8a#	4ff#
.	8b#	.
4.A#	8cc##	8ee#
.	8dd#	8ff#
.	8ee#	8gg#
8B	8cc##	8ee#
8A#	8dd#	8ff#
8G#	8ee#	8gg#
=9	=9	=9
8F#	8ff#	8aa#
8G#	8ee#	8gg#
4A#	8dd#	8ff#
.	8cc##	8ee#
4D#	8dd#	4ff#
.	8cc#	.
[4G#	4b	8ee#
.	.	8dd#
=10	=10	=10
8G#]	4a#	8cc##
8F#	.	4dd#
4E#	4g#	.
.	.	8cc##
4D#	4f#	8dd#
.	.	8cc#
4d#	8g#	[4b
.	8f#	.
=11	=11	=11
4c##	4.e#	8b]
.	.	16a#
.	.	16g#
4c#	.	8a#
.	16d#	16b
.	16e#	16cc#
4B#	8f#	8dd#
.	16g#	16ee#
.	16a#	16ff#
4Bn	8.g#T	8.ee#
.	32f#	16dd#
.	32g#	.
=12	=12	=12
8A#	8a#	4cc##
8AA#	8g#	.
[4D#	8f#	8dd#
.	8e#	8cc#
8D#]	4d#	8b
8F#	.	8a#
8E#	8c##	8g#
8D#	8d#	8f#
=13	=13	=13
8C##	8e#	8e#
8D#	8d#	8f#
4E#	8c##	[4g#
.	8B#	.
4AA#	4c##	8g#]
.	.	16f#
.	.	16e#
[4D#	8d#	8f#
.	8e#	8g#
=14	=14	=14
8D#]	4f#	4a#
8C#	.	.
2BB	8g#	8b
.	8f#	16cc#
.	.	16dd#
.	8e#	4g#
.	8c#	.
4AA#	[4f#	8r
.	.	8a#
=15	=15	=15
8GG#	4f#]	8b
8AA#	.	8cc#
8BB	2e#	8dd#
8C#	.	8ee#
8D#	.	8ff#
8E#	.	8gg#
8F#	4d#	8aa#
8G#	.	[8bb
=16	=16	=16
8A#	8c#	8bb]
8G#	8e#	8cc#
8A#	8f#	2ff#
8B	8g#	.
4c#	8a#	.
.	8b	.
4C#	8cc#	[4ee#
.	8b	.
=17	=17	=17
4FF#	8a#	4ee#]
.	8g#	.
[4F#	8f#	8dd#
.	8e#	8cc#
8F#]	8d#	8b#
8E#	8e#	8cc##
8D#	8f#	8dd#
8C#	8a#	8ee#
=18	=18	=18
8BB#	8dd#	4ff#
8AA#	8cc#	.
8GG##	2b#	8ee#
8EE#	.	8dd#
8AA#	.	8cc#
8BB#	.	8dd#
8C#	[4a#	8ee#
8D#	.	8ff#
=19	=19	=19
8E#	4a#]	4cc#
8D#	.	.
8E#	4g##	4b#
8EE#	.	.
8AA#	4A#	4a#
8GG##	.	.
8AA#	[4e#	4r
8BB#	.	.
=20	=20	=20
8C#	8e#]	4a#
8BB#	8f#	.
8C#	8e#	[4ee#
8D#	8d#	.
8E#	8c#	8ee#]
8D#	8d#	8ff#
8C#	4e#	8ee#
16D#	.	8dd#
16E#	.	.
=21	=21	=21
16F#	4A#	8cc#
16E#	.	.
8F#	.	8dd#
4GG##	8r	4ee#
.	[8d#	.
4AA#	8d#]	4a#
.	8c#	.
4BB#	4B#	8r
.	.	[8dd#
=22	=22	=22
8C#	4A#	8dd#]
8AA#	.	8cc#
8E#	8r	4b#
8D#	[8g#	.
8C##	8g#]	4a#
4D#	8f#	.
.	4e#	8r
8C##	.	[8gg#
=23	=23	=23
8D#	4d#	8gg#]
8B#	.	8ff#
8G##	8r	[4ee#
8A#	8c#	.
8F#	8a#	16ee#]
.	.	16dd#
8E#	8g##	16ee#
.	.	16ff#
4F#	4a#	8.dd#
.	.	16ee#
=24	=24	=24
4E#	4g##	4ee#
4r	4a#	[4aa#
4F#	4.dd#	8aa#]
.	.	8bb
[4B	.	8aa#
.	8ee#	8gg#
=25	=25	=25
8B]	4.dd#	8ff##
8c#	.	8gg#
8B	.	4aa#
8A#	8cc#	.
8G#	4.b#	4dd#
8F##	.	.
8G#	.	[4gg#
8A#	8cc#	.
=26	=26	=26
4B#	4dd#	8gg#]
.	.	8ff#
8c#	4g#	2ee#
8Bn	.	.
8A#	2cc#	.
8G#	.	.
8F##	.	[4dd#
8D#	.	.
=27	=27	=27
8G#	4b#	4dd#]
8A#	.	.
8G#	4r	4.gg#
8F#	.	.
8E#	4g#	.
8F#	.	8aa#
8E#	[4cc#	8gg#
8D#	.	8ff#
=28	=28	=28
8C#	8cc#]	8ee#
8B	8dd#	8ff#
8A#	8cc#	4gg#
8G#	8bn	.
8F#	8a#	4cc#
8G#	8b	.
8F#	4cc#	[4ff#
8En	.	.
=29	=29	=29
8D#	4f#	8ff#]
8C#	.	8een
8BB	[4b	8dd#
8GG#	.	8gg#
8AA#	8b]	8cc#
8FF#	8a#	4ff#
8C#	4g#	.
8CC#	.	8ee#
=30	=30	=30
8FF#	8f#	4ff#
8GG#	8e#	.
8AA#	8f#	[4cc#
8GG#	8g#	.
8FF#	8a#	8cc#]
8F#	8g#	8b
8E#	8a#	8cc#
8D#	8b#	8dd#
=31	=31	=31
4C#	8cc#	8ee#
.	4bn	8dd#
2F#	.	4cc#
.	8a#	.
.	8b	4gg#
.	8a#	.
4E#	8g#	[4cc#
.	8b	.
=32	=32	=32
8F#	[2a#	8cc#]
8E#	.	8dd#
8D#	.	4ee#
8C##	.	.
4D#	8a#]	[2ff#
.	8b#	.
8AA#	8cc#	.
8BB#	8dd#	.
=33	=33	=33
4C#	4g#	8ff#]
.	.	8ee#
4FF#	[4a#	8dd#
.	.	8cc#
4GG#	8a#]	4b#
.	8g#	.
4AA#	8f#	4cc##
.	8e#	.
=34	=34	=34
8BB	8d#	2dd#
8AA#	8f#	.
8GG#	[4b	.
8FF#	.	.
4EEn	8b]	2cc#
.	8a#	.
4DD#	8g#	.
.	8f##	.
=35	=35	=35
8GG#	2.g#	8b
8AA#	.	8cc#
8BB	.	8dd#
8C#	.	8een
4D#	.	8a#
.	.	8b
8r	4f##	8cc#
8D#	.	8dd#
=36	=36	=36
8G#	4g#	8b
8A#	.	8a#
8B	[4d#	8g#
8G#	.	8f#
8A#	8d#]	4e#
8G#	8c##	.
8F#	8d#	8f#
8E#	8e#	8g#
=37	=37	=37
4D#	8f#	4a#
.	8e#	.
4.G#	4d#	8b#
.	.	8cc##
.	4a#	4.dd#
16F##	.	.
16E#	.	.
4F#	[4d#	.
.	.	8cc#
=38	=38	=38
8G#	8d#]	8b#
8F#	8e#	8cc##
8E#	4f#	2dd#
8D#	.	.
8E#	2g#	.
8F#	.	.
8G#	.	4cc#
8A#	.	.
=39	=39	=39
16D#	8f#	4dd#
16d#	.	.
16c#	8g#	.
16B	.	.
[4A#	8a#	8cc##
.	8b#	8dd#
8A#]	8cc##	8ee#
8F#	8A#	8gg#
8G#	8B#	8ff#
8A#	8c##	8ee#
=40	=40	=40
8Bn	4.d#	8dd#
8A#	.	8cc#
4G#	.	8b
.	8e#	16a#
.	.	16b
4d#	4f#	8a#
.	.	8b#
[4A#	8e#	8cc##
.	8d#	8dd#
=41	=41	=41
8A#]	8c##	8ee#
8B#	8d#	8a#
4c##	[4e#	8aa#
.	.	8gg#
8d#	8e#]	8ff#
8Bn	16d#	8gg#
.	16c##	.
8F#	[4d#	8aa#
8G#	.	8bb
=42	=42	=42
4A#	8d#]	4ee#
.	8c#	.
4D#	8B	4ff##
.	8A#	.
8G#	8B	8gg#
8A#	8d#	8ff#
4B	[4g#	8ee#
.	.	8dd#
=43	=43	=43
2A#	8g#]	4cc##
.	8f#	.
.	8e#	[4dd#
.	8d#	.
2r	4e#	8dd#]
.	.	8cc#
.	4f##	8b
.	.	8a#
=44	=44	=44
2r	8g#	8b
.	8f#	8a#
.	8e#	[4g#
.	8d#	.
4AA#	4c##	8g#]
.	.	16f#
.	.	16e#
[4DD#	8d#	8f#
.	8e#	8g#
=45	=45	=45
8DD#]	8f#	4a#
8CC##	8e#	.
8DD#	8f#	[4d#
8EE#	8g#	.
8FF#	8a#	8d#]
8EE#	8g#	8c##
4DD#	8f#	8d#
.	16e#	8e#
.	16d#	.
=46	=46	=46
4AA#	8c##	8f#
.	4g#	8e#
[4DD#	.	4d#
.	16f#	.
.	16e#	.
8DD#]	8f##	4a#
8EE#	8g#	.
4FF##	8a#	[4d#
.	8c#	.
=47	=47	=47
4GG#	8B	8d#]
.	8c#	8e#
4AA#	8d#	4f##
.	8en	.
8BB	4d#	4g#
8C#	.	.
8BB	[4G#	4gg#
8AA#	.	.
=48	=48	=48
8GG#	8G#]	4.dd#
8AA#	8F##	.
8BB	8G#	.
8D#	8A#	8cc#
4G#	8B	4.dd#
.	8A#	.
8BB	4G#	.
8C#	.	8ee#
=49	=49	=49
8D#	4d#	4.ff#
8C##	.	.
8D#	[4A#	.
8E#	.	8ee#
8F#	8A#]	4dd#
8G#	8B	.
8E#	4c#	4aa#
8F##	.	.
=50	=50	=50
8G#	8c#	4.dd#
8A#	8cc#	.
8G#	8b	.
8F#	8a#	8dd#
8E#	8g#	8cc##
8D#	8f#	8dd#
8C##	8g#	8ee#
8B	8e#	8cc##
=51	=51	=51
8A#	8f#	8dd#
8G#	8g#	8ee#
8F#	8a#	8ff#
8E#	[8g#	8gg#
8D#	8g#]	8aa#
8C#	16f#	8a#
.	16e#	.
4BB	8f#	8dd#
.	8g#	8ee#
=52	=52	=52
4AA#	4a#	4cc##
4.D#	4A#	4r
.	4.d#	4a#
8En	.	.
8D#	.	[4dd#
8C#	8en	.
=53	=53	=53
8BB	8d#	8dd#]
8C#	8c#	8een
4D#	8B	8dd#
.	8c#	8cc#
8GG#	4d#	8b
8AA#	.	8cc#
4BB	8G#	4dd#
.	8F#	.
=54	=54	=54
4C#	4E#	8g#
.	.	16a#
.	.	16b
4.FF#	4c#	8a#
.	.	8b
.	4.F#	4cc#
8EE#	.	.
8FF#	.	[4f#
8GG#	8E#	.
=55	=55	=55
8AA#	8F#	8f#]
8GG#	8G#	8e#
8FF#	8A#	8f#
8En	8G#	8g#
[2D#	4F#	8a#
.	.	8g#
.	8B	4f#
.	8A#	.
=56	=56	=56
8D#]	4G#	[2een
8C#	.	.
8BB	4cc#	.
8AA#	.	.
4BB	2f#	8ee]
.	.	8cc##
8B	.	[4dd#
8A#	.	.
=57	=57	=57
8G#	8b	8dd#]
8A#	8a#	8ff#
8B	8g#	8ee#
8G#	8f#	8dd#
4.A#	8e#	8cc##
.	8d#	8ee#
.	8c##	[4aa#
8G#	8e#	.
=58	=58	=58
8F#	8A#	8aa#]
8G#	8g#	8bb
4A#	8f#	8aa#
.	8e#	8gg#
8D#	4d#	8ff#
8E#	.	8gg#
4F##	8dd#	4aa#
.	8cc#	.
=59	=59	=59
8G#	8b	4dd#
8F#	8a#	.
8E#	8g#	[4gg#
8D#	8b	.
8C##	8a#	8gg#]
8D#	4dd#	8ff#
8AA#	.	4ee#
8A#	[8cc#	.
=60	=60	=60
8B	8cc#]	4dd#
8D#	4b	.
8E#	.	4cc#
8F##	4a#	.
8G#	.	4b
8E#	4g#	.
8C##	.	4a#
8D#	[8f#	.
=61	=61	=61
8BB#	8f#]	4g#
8C##	4e#	.
8D#	.	4f#
8DD#	8d#	.
4AA#	8c##	4e#
.	8e#	.
4r	[4a#	8r
.	.	8b#
=62	=62	=62
2A#	8a#]	8cc##
.	8bn	8dd#
.	8a#	[4ee#
.	8g#	.
[2d#	8f#	8ee#]
.	8g#	8dd#
.	4a#	16cc#
.	.	16b
.	.	16cc#
.	.	16ff##
=63	=63	=63
4d#]	4d#	16gg#
.	.	16aa#
.	.	4bb
4en	[4g#	.
.	.	16aa#
.	.	16gg#
4d#	8g#]	8aa#
.	8f##	8dd#
4c#	8e#	8ee#
.	8en	8ff##
=64	=64	=64
4B	8d#	4gg#
.	8b	.
4c#	8a#	4r
.	8g#	.
2d#	8f##	4aa#
.	16d#	.
.	16e#	.
.	8f##	[4dd#
.	16g#	.
.	16a#	.
=65	=65	=65
2G#	4.b	8dd#]
.	.	8b
.	.	8cc#
.	8a#	8dd#
[2c#	8g#	8een
.	8f##	8dd#
.	8g#	4cc#
.	8a#	.
=66	=66	=66
4c#]	8d#	4gg#
.	8e#	.
4B	8f##	[4dd#
.	8g#	.
2A#	16a#	8dd#]
.	16b	.
.	4cc#	8ee#
.	.	4ff##
.	16b	.
.	16a#	.
=67	=67	=67
4G#	4b	8gg#
.	.	8aa#
[4c#	4r	8gg#
.	.	8ff#
8c#]	2g#	8ee#
8d#	.	8ff#
8c#	.	[4gg#
8B	.	.
=68	=68	=68
8A#	2.cc#	8gg#]
8B	.	8ff#
4c#	.	8ee#
.	.	16ff#
.	.	16gg#
4F#	.	16aa#
.	.	16gg#
.	.	4aa#
[4B	4dd#	.
.	.	16gg#
.	.	16ff#
=69	=69	=69
8B]	4cc#	8ee#
8A#	.	4ff#
4G#	4b	.
.	.	8ee#
8F#	4a#	8ff#
8En	.	8cc#
16D#	4b	[4ff#
16C#	.	.
16D#	.	.
16E	.	.
=70	=70	=70
8AA#	2cc#	8ff#]
8FF#	.	8gg#
8GG#	.	8ff#
8AA#	.	8een
8BB	2f#	8dd#
8C#	.	8ee
8D#	.	4ff#
16En	.	.
16F#	.	.
=71	=71	=71
8G#	2.b	4b
16A#	.	.
16B	.	.
8C#	.	[4een
16D#	.	.
16En	.	.
8FF#	.	8ee]
4F#	.	8dd#
.	4a#	4cc#
8F##	.	.
=72	=72	=72
8G#	2g#	4b
8F##	.	.
8G#	.	[4een
8A#	.	.
8B	4f#	8ee]
8A#	.	8cc##
8G#	[4b	[4dd#
8F#	.	.
=73	=73	=73
8E#	8b]	4dd#]
8F#	8dd#	.
8E#	8cc#	[4gg#
8D#	8b	.
8C##	8a#	8gg#]
16c##	8b	8gg#
16d#	.	.
8en	4cc#	8ff##
8A#	.	[8ff#
=74	=74	=74
8B	4g#	8ff#]
8B#T	.	8ff#
8c#	[4cc#	8ee#
8A#	.	8een
8F##	8cc#]	4dd#
4G#	8b	.
.	[4a#	4cc#
8F##	.	.
=75	=75	=75
8G#	8a#]	4.b
8F#	8d#	.
8En	[4g#	.
8D#	.	8b
8C#	8g#]	4.a#
8C##	8g#	.
8D#	[4f#	.
8AA#	.	8ff#
=76	=76	=76
8BB	8f#]	[2g#
8BB#	8f#	.
8C#	8en	.
8GG#	8d#	.
[2AA#	4c##	8g#]
.	.	16f#
.	.	16e#
.	[4d#	8f#
.	.	8g#
=77	=77	=77
8AA#]	8d#]	4a#
8E#	16c##	.
.	16B#	.
[4A#	8c##	4r
.	8e#	.
8A#]	4.a#	2ee#
8B	.	.
8A#	.	.
8G#	8bn	.
=78	=78	=78
8F#	4.a#	2.aa#
8G#	.	.
4A#	.	.
.	8g#	.
8D#	4.f#	.
16E#	.	.
16F#	.	.
[4G#	.	4bb
.	8g#	.
=79	=79	=79
8G#]	2a#	4aa#
8F#	.	.
8E#	.	4gg#
8c##	.	.
8d#	4d#	4ff#
16e#	.	.
16f#	.	.
8e#	[4g#	4gg#
8d#	.	.
=80	=80	=80
8c##	8g#]	2aa#
4d#	8f#	.
.	4e#	.
[8c#	.	.
8c#]	8f##	2dd#
16d#	8A#	.
16en	.	.
8d#	[4d#	.
8c#	.	.
=81	=81	=81
8B	8d#]	2.gg#
8c#	8en	.
8B	8d#	.
8A#	8c#	.
8G#	8B	.
8F#	8c#	.
8En	4d#	4ff#
8D#	.	.
=82	=82	=82
8C#	4G#	2een
16c#	.	.
16B	.	.
8A#	[4c#	.
8G#	.	.
8F##	8c#]	[2dd#
4G#	8B	.
.	4A#	.
8F#	.	.
=83	=83	=83
[2E#	4.G#	8dd#]
.	.	8b
.	.	[4g#
.	8A#	.
8E#]	8B	8g#]
8F#	8A#	8a#
8E#	8G#	[4b
8D#	8F#	.
=84	=84	=84
[2C##	4.E#	8b]
.	.	8g#
.	.	[4e#
.	8F#	.
8C##]	8G#	8e#]
8D#	8F#	8f#
8C##	8E#	[4g#
8BB#	8D#	.
=85	=85	=85
[2AA#	4.C##	8g#]
.	.	8e#
.	.	[4c##
.	8D#	.
8AA#]	4E#	8c##]
8GG#	.	8c##
8FF#	8F#	8d#
8EE#	8G#	8e#
=86	=86	=86
8DD#	8A#	8f#
8C#	8A#	8f##
8BB	8B	8g#
8AA#	8c#	8a#
8GG#	8d#	8b
8F#	8d#	8b#
8E#	8e#	8cc##
8D#	8f#	8dd#
=87	=87	=87
4A#	8e#	4dd#
.	8b	.
4AA#	8a#	4cc##
.	8g#	.
2DD#;	2f##;	2dd#;
==	==	==
*-	*-	*-
!!!CDT: 1685/3/-1750/7/28
!!!OCY: Deutschland
!!!PPP: Coethen; Cothen; Co2then
!!!ODT: <1722//
!!!PDT: 1722
!!!AFR: fuga; fugue
!!!AST: polyphony
!!!AMT: simple quadruple
!!!SCA: Bach-Werke-Verzeichnis
!!!YOR: Bach Gesellschaft
!!!SMS: British Library, various
!!!AIN: cemba; clavi
!!!EEV: 1.0
!!!RDT: 1986 November 17
!!!YER: 1994 August 10
!!!EFL: 8/48
!!!VTS: 729924291
